src/assets/channels/messenger.svg

<svg viewBox="0 0 24 24" fill="#0084FF" xmlns="http://www.w3.org/2000/svg">
  <path d="M12 0C5.373 0 0 4.974 0 11.111c0 3.498 1.744 6.614 4.469 8.654V24l4.088-2.242c1.092.301 2.246.464 3.443.464 6.627 0 12-4.974 12-11.111C24 4.974 18.627 0 12 0zm1.191 14.963l-3.055-3.26-5.963 3.26L10.732 8.2l3.131 3.259L19.752 8.2l-6.561 6.763z"></path>
</svg>

<svg width="24" height="24" viewBox="0 0 24 24" fill="none" xmlns="http://www.w3.org/2000/svg">
<g clip-path="url(#clip0_1_7)">
<path d="M12 0C5.373 0 0 4.974 0 11.111C0 14.609 1.744 17.725 4.469 19.765V24L8.557 21.758C9.649 22.059 10.803 22.222 12 22.222C18.627 22.222 24 17.248 24 11.111C24 4.974 18.627 0 12 0ZM13.191 14.963L10.136 11.703L4.173 14.963L10.732 8.2L13.863 11.459L19.752 8.2L13.191 14.963Z" fill="#0084FF" style="fill:#0084FF;fill:color(display-p3 0.0000 0.5176 1.0000);fill-opacity:1;"/>
</g>
<defs>
<clipPath id="clip0_1_7">
<rect width="24" height="24" fill="white" style="fill:white;fill-opacity:1;"/>
</clipPath>
</defs>
</svg>
